X: 1
T: Bourr\'ee \`a Gaston Pommier
R: bourree
S: JPG file of unknown origin, dated 20009-7-4
Z: 2021 John Chambers <jc:trillian.mit.edu>
M: 2/4
L: 1/8
K: G
|:\
G B2 d | g3 b | a>g fe | d/e/d/c/ BA |\
G B2 d | g3 b | a>g fe | d4 :|
|:\
B>d Bd | c>e ce | B>d Bd | A3 A |\
G>B dg | e3 b | a>g fa | g4 :|
